assets/icons/Hide-Password-Unactive.svg

<svg width="18" height="18" viewBox="0 0 18 18" fill="none" xmlns="http://www.w3.org/2000/svg">
<path d="M7.3001 10.8C6.9001 10.4 6.6001 9.79995 6.6001 9.09995C6.6001 7.79995 7.7001 6.69995 9.0001 6.69995C9.7001 6.69995 10.2001 6.99995 10.7001 7.39995" stroke="#ADA4A5" stroke-width="1.2" stroke-linecap="round" stroke-linejoin="round"/>
<path d="M11.2999 9.5C11.0999 10.5 10.3999 11.2 9.3999 11.4" stroke="#ADA4A5" stroke-width="1.2" stroke-linecap="round" stroke-linejoin="round"/>
<path d="M5.0001 13.1C3.8001 12.2 2.8001 10.8 2.1001 9.09998C2.8001 7.39998 3.9001 5.99998 5.1001 5.09998C6.3001 4.19998 7.7001 3.59998 9.1001 3.59998C10.5001 3.59998 11.9001 4.09998 13.1001 5.09998" stroke="#ADA4A5" stroke-width="1.2" stroke-linecap="round" stroke-linejoin="round"/>
<path d="M14.9001 3.19995L3.1001 15" stroke="#ADA4A5" stroke-width="1.2" stroke-linecap="round" stroke-linejoin="round"/>
</svg>

<?xml version="1.0" encoding="utf-8"?>
<!-- Generator: Adobe Illustrator 24.3.0, SVG Export Plug-In . SVG Version: 6.00 Build 0)  -->
<svg version="1.1" id="Слой_1" xmlns="http://www.w3.org/2000/svg" xmlns:xlink="http://www.w3.org/1999/xlink" x="0px" y="0px"
	 viewBox="0 0 18 18" style="enable-background:new 0 0 18 18;" xml:space="preserve">
<style type="text/css">
	.st0{fill:none;stroke:#ADA4A5;stroke-width:1.2;stroke-linecap:round;stroke-linejoin:round;}
	.st1{display:none;fill:none;stroke:#ADA4A5;stroke-width:1.2;stroke-linecap:round;stroke-linejoin:round;}
</style>
<path class="st0" d="M7.3,10.8c-0.4-0.4-0.7-1-0.7-1.7c0-1.3,1.1-2.4,2.4-2.4c0.7,0,1.2,0.3,1.7,0.7"/>
<path class="st0" d="M11.3,9.5c-0.2,1-0.9,1.7-1.9,1.9"/>
<path class="st0" d="M5,13.1c-1.2-0.9-2.2-2.3-2.9-4c0.7-1.7,1.8-3.1,3-4c1.2-0.9,2.6-1.5,4-1.5c1.4,0,2.8,0.5,4,1.5"/>
<path class="st1" d="M14.6,6.7c0.5,0.7,1,1.5,1.4,2.4c-1.5,3.4-4.1,5.5-6.9,5.5c-0.6,0-1.3-0.1-1.9-0.3"/>
<path class="st0" d="M14.9,3.2L3.1,15"/>
</svg>
